icons/lines/password-check.svg

<svg xmlns="http://www.w3.org/2000/svg" width="24" height="24" viewBox="0 0 24 24" fill="none" stroke="currentColor" stroke-width="2" stroke-linecap="round" stroke-linejoin="round">
  <path d="M11.02 19.5H7.5c-.62 0-1.17-.02-1.66-.09-2.63-.29-3.34-1.53-3.34-4.91v-5c0-3.38.71-4.62 3.34-4.91.49-.07 1.04-.09 1.66-.09h3.46" />
  <path d="M11.095 12h.01" />
  <path d="M15 2v20" />
  <path d="M15.02 4.5h1.48c.62 0 1.17.02 1.66.09 2.63.29 3.34 1.53 3.34 4.91v5c0 3.38-.71 4.62-3.34 4.91-.49.07-1.04.09-1.66.09h-1.48" />
  <path d="M7.095 12h.01" />
</svg>

<svg xmlns="http://www.w3.org/2000/svg" width="24" height="24" viewBox="0 0 24 24" fill="none" stroke="currentColor" stroke-width="2" stroke-linecap="round" stroke-linejoin="round" >
  <path d="M11.02 19.5H7.5C6.88 19.5 6.33 19.48 5.84 19.41C3.21 19.12 2.5 17.88 2.5 14.5V9.5C2.5 6.12 3.21 4.88 5.84 4.59C6.33 4.52 6.88 4.5 7.5 4.5H10.96"/>
  <path d="M15.02 4.5H16.5C17.12 4.5 17.67 4.52 18.16 4.59C20.79 4.88 21.5 6.12 21.5 9.5V14.5C21.5 17.88 20.79 19.12 18.16 19.41C17.67 19.48 17.12 19.5 16.5 19.5H15.02"/>
  <path d="M15 2V22"/>
  <path d="M11.0946 12H11.1036"/>
  <path d="M7.0946 12H7.10359"/>
  </svg>
